X: 1
T: Simon Thoumire's Jig
C: John McCusker
R: jig
Z: 2015 John Chambers <jc:trillian.mit.edu>
S: printed page 22.08 from the Strathspey & Reel Society of New Hampshire
M: 6/8
L: 1/8
K: G
|:\
"G"G3 "(C)"EDE | "G"GA^A Bde | "C"gfd ege | "G"dBG ABA |
"G"G3 "(C)"EDE | "G"GA^A Bde | "C"gfd e{f}ge |1 "D"dBG "G"GBA :|2 "D"dBG "G"GBd ||
|:\
"G"gfd "C"e2g | "G"gfd edg | "C"edB "(G)"BAG | "D"ABG E2D |
"G"G3 "(C)"EDE | "G"GA^A Bde | "C"gfd ege | "D"dBG "G"GBd :| "D"dBG "(G)"GAB |]
